packages/foundations/assets/icons/functional/images/technology/database_20.svg

<svg width="20" height="20" viewBox="0 0 20 20" fill="none" xmlns="http://www.w3.org/2000/svg">
<g clip-path="url(#clip0_187_582)">
<path fill-rule="evenodd" clip-rule="evenodd" d="M15 2.98688C16.6569 2.98688 18 4.33002 18 5.98688C18 6.75518 17.7112 7.45603 17.2362 7.98678C17.7108 8.51686 18 9.2181 18 9.98688C18 10.7557 17.7108 11.4569 17.2353 11.9878C17.7112 12.5177 18 13.2186 18 13.9869C18 15.5846 16.7147 16.9869 15 17.0131L5 16.9869C3.34315 16.9869 2 15.6437 2 13.9869C2 13.2186 2.28882 12.5177 2.76381 11.987C2.28917 11.4569 2 10.7557 2 9.98688C2 9.21857 2.28882 8.51772 2.76381 7.98698C2.28917 7.4569 2 6.75566 2 5.98688C2 4.3892 3.27994 2.98688 5 2.98688H15ZM5 12.9869C4.44772 12.9869 4 13.4346 4 13.9869C4 14.4997 4.41623 14.9869 5 14.9869H15C15.5523 14.9869 16 14.5392 16 13.9869C16 13.474 15.5973 12.9869 15 12.9869H5ZM5 8.98688C4.44772 8.98688 4 9.43459 4 9.98688C4 10.4997 4.42718 10.9869 5 10.9869H15C15.5523 10.9869 16 10.5392 16 9.98688C16 9.47404 15.6179 9.01871 15 8.98688H5ZM5 4.98688C4.44772 4.98688 4 5.43459 4 5.98688C4 6.49971 4.42914 6.98688 5 6.98688H15C15.5523 6.98688 16 6.53916 16 5.98688C16 5.47404 15.5833 4.98688 15 4.98688H5Z" fill="#1A1C1F"/>
</g>
<defs>
<clipPath id="clip0_187_582">
<rect width="20" height="20" fill="white"/>
</clipPath>
</defs>
</svg>

<svg xmlns="http://www.w3.org/2000/svg" width="20" height="20" fill="none"><g clip-path="url(#a)"><path fill="#1A1C1F" fill-rule="evenodd" d="M15 2.987a3 3 0 0 1 2.236 5 3 3 0 0 1 .764 2c0 .769-.29 1.47-.765 2 .476.53.765 1.232.765 2 0 1.598-1.285 3-3 3.026l-10-.026a3 3 0 0 1-2.236-5 3 3 0 0 1-.764-2c0-.768.289-1.47.764-2a3 3 0 0 1-.764-2c0-1.598 1.28-3 3-3zm-10 10a1 1 0 1 0 0 2h10a1 1 0 0 0 1-1c0-.513-.403-1-1-1zm0-4a1 1 0 0 0-1 1c0 .513.427 1 1 1h10a1 1 0 0 0 1-1c0-.513-.382-.968-1-1zm0-4a1 1 0 0 0-1 1c0 .513.43 1 1 1h10a1 1 0 1 0 0-2z" clip-rule="evenodd"/></g><defs><clipPath id="a"><path fill="#fff" d="M0 0h20v20H0z"/></clipPath></defs></svg>
